X: 123
T:Ievan Polkka
M:2/4
L:1/16
Q:1/4=120
K:AMin
% dorian/minor hexatonic
A|E2A2 A3B |cAAA  A2cc|B2G2 G2BB|c2A2  A3
E|E2A2 A3B |cAAA  A2cc|e2d2 c2B2|cA2A- A3
c|e2e2 d2c2|B2G2  G2B2|d2d2 c2B2|B2G2  G3
B|e2ee d2c2|BG2G- G3B |d2d2 c2B2|cA2A- A3||

This is an example of it being used to imitate a folk idiom from
outside Scotland (but Gershwin's accompaniment tends to fill in
the gap, making the music sound Dorian more often than minor):

